X:2196 
T:A country lad of low degree 
C:Traditional
O:Isle of Man
Z:Clague collection
B:Kiaull Vannin #196 
M:2/4 
L:1/4
K:D 
E |B3/2B/|B3/2A/|GE|EE|GA|Bd|eA|A G/A/|
BB|B A/G/|AB|ge|ed|B c/d/|eE|E||

